src/assets/metronic/worbby/global/img/icon-search-inactive.svg

<?xml version="1.0" encoding="UTF-8"?>
<svg width="30px" height="30px" viewBox="0 0 30 30" version="1.1" xmlns="http://www.w3.org/2000/svg" xmlns:xlink="http://www.w3.org/1999/xlink">
    <!-- Generator: Sketch 41.2 (35397) - http://www.bohemiancoding.com/sketch -->
    <title>icon-search-inactive</title>
    <desc>Created with Sketch.</desc>
    <defs></defs>
    <g id="Worbby-Needor" stroke="none" stroke-width="1" fill="none" fill-rule="evenodd">
        <g id="Categories-List" transform="translate(-315.000000, -161.000000)">
            <g id="Search-bar" transform="translate(20.000000, 151.000000)">
                <g id="Inactive">
                    <g id="Group-5">
                        <g id="icon-search-inactive" transform="translate(295.000000, 10.000000)">
                            <ellipse id="Oval" fill="#F3F3F5" cx="10" cy="20" rx="10" ry="10"></ellipse>
                            <path d="M29.8089167,25.4501801 C29.7669154,25.3841537 29.7189139,25.3181273 29.6649123,25.2641056 C25.9567982,21.5546218 21.6006643,17.7190876 19.9446133,16.2845138 C21.168651,14.4117647 21.4266589,12.7791116 21.4266589,10.7142857 C21.4266589,4.80792317 16.6205111,0 10.7103294,0 C4.8061478,0 0,4.80792317 0,10.7142857 C0,13.577431 1.11603432,16.2665066 3.1380965,18.2893157 C5.16015869,20.3121248 7.85424153,21.4285714 10.7163295,21.4285714 C12.780393,21.4285714 14.4124432,21.1704682 16.2845008,19.9459784 C17.7125447,21.5966387 21.5226619,25.9363745 25.2607768,29.6698679 C25.3147785,29.7238896 25.3807805,29.7719088 25.4467825,29.8139256 C25.560786,29.8859544 25.8127938,30 26.1848052,30 C26.9288281,30 27.7568536,29.5438175 28.6508811,28.6554622 C30.3849344,26.9147659 30.0369237,25.8343337 29.8089167,25.4501801 L29.8089167,25.4501801 Z M27.2708386,27.27491 C26.8208248,27.72509 26.5148154,27.9171669 26.34081,27.9951981 C21.8706726,23.4933974 17.3765344,18.2352941 17.1845285,18.0072029 C17.1845285,18.0072029 17.1845285,18.0072029 17.1845285,18.0012005 C17.136527,17.9471789 17.0825253,17.8931573 17.0285237,17.8511405 C16.650512,17.5690276 16.1344962,17.5990396 15.7924857,17.9111645 C14.0344316,19.2316927 12.6963904,19.4777911 10.7163295,19.4777911 C8.37625759,19.4777911 6.17418987,18.5654262 4.51813894,16.9087635 C2.86208801,15.2521008 1.95005997,13.0492197 1.95005997,10.7082833 C1.95005997,5.88235294 5.88018083,1.94477791 10.7163295,1.94477791 C15.5524783,1.94477791 19.4825991,5.87635054 19.4825991,10.7142857 C19.4825991,12.6890756 19.2365916,14.0216086 17.9345515,15.7683073 C17.8925502,15.8103241 17.8565491,15.8583433 17.8265482,15.9063625 C17.5565399,16.3145258 17.6345423,16.8667467 18.0065537,17.1848739 C18.0605554,17.2328932 23.4487211,21.8307323 27.996861,26.3505402 C27.9068582,26.5186074 27.7208525,26.8247299 27.2708386,27.27491 Z M6.8582109,6.8607443 C7.23622253,6.48259304 7.23622253,5.86434574 6.8582109,5.48019208 C6.48019928,5.09603842 5.86218027,5.10204082 5.47816846,5.48019208 C2.59207971,8.36734694 2.59207971,13.0612245 5.47816846,15.9483794 C5.67017437,16.1404562 5.91618193,16.2364946 6.16818968,16.2364946 C6.42019743,16.2364946 6.666205,16.1404562 6.8582109,15.9483794 C7.23622253,15.5702281 7.23622253,14.9519808 6.8582109,14.5678271 C4.73414558,12.4429772 4.73414558,8.98559424 6.8582109,6.8607443 Z" id="Combined-Shape" fill="#90A3B1"></path>
                        </g>
                    </g>
                </g>
            </g>
        </g>
    </g>
</svg>

<svg xmlns="http://www.w3.org/2000/svg" width="30" height="30"><g fill="none" fill-rule="evenodd"><ellipse cx="10" cy="20" fill="#F3F3F5" rx="10" ry="10"/><path fill="#90A3B1" d="M29.809 25.4502c-.042-.066-.09-.132-.144-.186-3.7082-3.7096-8.0643-7.545-9.7204-8.9797 1.224-1.8727 1.482-3.5054 1.482-5.5702C21.4267 4.808 16.6207 0 10.7104 0 4.806 0 0 4.808 0 10.7143c0 2.863 1.116 5.5522 3.138 7.575 2.0222 2.0228 4.7162 3.1393 7.5783 3.1393 2.064 0 3.696-.258 5.5682-1.4826 1.428 1.6506 5.2382 5.9904 8.9763 9.724.054.054.12.102.186.144.114.072.366.186.738.186.744 0 1.572-.4562 2.466-1.3445 1.734-1.7407 1.386-2.8212 1.158-3.2053zm-2.5382 1.8247c-.45.45-.756.6422-.93.7202-4.47-4.5018-8.9643-9.76-9.1563-9.988v-.006c-.048-.054-.102-.108-.156-.15-.378-.2822-.894-.2522-1.236.06-1.758 1.3205-3.096 1.5666-5.0762 1.5666-2.34 0-4.542-.9124-6.1982-2.569-1.656-1.6567-2.568-3.8596-2.568-6.2005 0-4.826 3.9302-8.7635 8.7663-8.7635 4.8362 0 8.7663 3.9316 8.7663 8.7695 0 1.9748-.246 3.3073-1.548 5.054-.042.042-.078.09-.108.138-.27.4082-.192.9604.18 1.2786.054.048 5.442 4.6457 9.9903 9.1655-.09.168-.276.4742-.7262.9244zM6.8582 6.8606c.378-.378.378-.9964 0-1.3805-.378-.3842-.996-.3782-1.38 0-2.886 2.887-2.886 7.581 0 10.4682.192.192.438.288.69.288.252 0 .498-.096.69-.288.378-.3782.378-.9964 0-1.3806-2.124-2.1248-2.124-5.5822 0-7.707z"/></g></svg>
